papirus/16x16/apps/synapse.svg

<?xml version="1.0" encoding="UTF-8" standalone="no"?>
<!-- Created with Inkscape (http://www.inkscape.org/) -->

<svg
   xmlns:dc="http://purl.org/dc/elements/1.1/"
   xmlns:cc="http://creativecommons.org/ns#"
   xmlns:rdf="http://www.w3.org/1999/02/22-rdf-syntax-ns#"
   xmlns:svg="http://www.w3.org/2000/svg"
   xmlns="http://www.w3.org/2000/svg"
   xmlns:sodipodi="http://sodipodi.sourceforge.net/DTD/sodipodi-0.dtd"
   xmlns:inkscape="http://www.inkscape.org/namespaces/inkscape"
   id="svg4779"
   height="16"
   width="16"
   version="1.1"
   viewBox="0 0 16 16"
   inkscape:version="0.91 r13725"
   sodipodi:docname="synapse.svg">
  <sodipodi:namedview
     pagecolor="#ffffff"
     bordercolor="#666666"
     borderopacity="1"
     objecttolerance="10"
     gridtolerance="10"
     guidetolerance="10"
     inkscape:pageopacity="0"
     inkscape:pageshadow="2"
     inkscape:window-width="1600"
     inkscape:window-height="847"
     id="namedview14"
     showgrid="false"
     inkscape:zoom="1"
     inkscape:cx="16"
     inkscape:cy="16"
     inkscape:window-x="0"
     inkscape:window-y="0"
     inkscape:window-maximized="1"
     inkscape:current-layer="svg4779" />
  <defs
     id="defs4781">
    <linearGradient
       id="linearGradient4159"
       y2="-16"
       gradientUnits="userSpaceOnUse"
       x2="-1022.4"
       gradientTransform="matrix(0,-1,-1,0,0,-1020.4)"
       y1="-16"
       x1="-1036.4">
      <stop
         id="stop4155"
         offset="0" />
      <stop
         id="stop4157"
         stop-opacity="0"
         offset="1" />
    </linearGradient>
  </defs>
  <metadata
     id="metadata4784">
    <rdf:RDF>
      <cc:Work
         rdf:about="">
        <dc:format>image/svg+xml</dc:format>
        <dc:type
           rdf:resource="http://purl.org/dc/dcmitype/StillImage" />
        <dc:title></dc:title>
      </cc:Work>
    </rdf:RDF>
  </metadata>
  <rect
     style="fill:#20b293"
     x="-16"
     y="-16"
     width="16"
     height="16"
     transform="matrix(0,-1,-1,0,0,0)"
     rx="8"
     ry="8"
     id="rect4255-5" />
  <path
     style="opacity:0.8;fill:#ffffff"
     inkscape:connector-curvature="0"
     d="m 7.4843656,3 0,1.1253335 C 5.7907816,4.3237777 4.4171958,5.4926671 4,7.0234447 l 1.0702749,0 C 5.5094708,5.917667 6.6740879,5.055445 7.943674,5.0643329 l 0.092183,0 c 0.4623954,0.00556 0.9157623,0.1111122 1.3265576,0.3049452 0.7407934,0.3153887 1.2906154,0.9376105 1.5578124,1.6556666 l 1.079704,0 C 11.582735,5.4941672 10.20915,4.3248888 8.5155654,4.1267779 l 0,-1.1252779 -1.0312456,0 z m 0.515617,2.874111 c -1.2563873,0 -2.2734055,0.9583895 -2.2734055,2.1499448 0,0 -0.0156,0.201222 0.05,0.4296665 l 3.4921369,0 C 9.173514,8.7029448 9.0045677,8.9268893 8.77497,9.0757219 8.2469757,9.4707225 7.4468695,9.3264444 6.9968741,8.8849444 l -1.0812468,0 C 6.2672239,9.6437775 7.0672158,10.174 8.0000066,10.174 c 1.2563873,0 2.2734054,-0.9615001 2.2734054,-2.1499442 0,0 -1.12e-4,-0.2208333 -0.04532,-0.4297221 l -3.4929372,0 C 6.9319587,7.1240001 7.4020683,6.7441108 7.9468627,6.7394996 l 0.081246,0 c 0.3655966,0.00778 0.720392,0.1712784 0.9671897,0.4266676 l 1.0890756,0 C 9.7327825,6.407333 8.9311906,5.875611 7.9999998,5.875611 Z M 4.0000228,8.9765553 c 0.4171958,1.5307777 1.7907817,2.7000557 3.4843656,2.8981667 l 0,1.125278 1.0312456,0 0,-1.125278 c 1.693584,-0.2 3.06717,-1.367389 3.484366,-2.8981667 l -1.064047,0 C 10.518757,10.138111 9.2278557,10.977666 7.9250695,10.934223 6.6546821,10.940334 5.5051507,10.082333 5.0735549,8.9765553 l -1.0734178,0 z"
     id="rect4451" />
</svg>

<?xml version="1.0" encoding="UTF-8" standalone="no"?>
<svg id="svg4779" xmlns:rdf="http://www.w3.org/1999/02/22-rdf-syntax-ns#" xmlns="http://www.w3.org/2000/svg" height="16" width="16" version="1.1" xmlns:cc="http://creativecommons.org/ns#" viewBox="0 0 16 16" xmlns:dc="http://purl.org/dc/elements/1.1/">
 <metadata id="metadata4784">
  <rdf:RDF>
   <cc:Work rdf:about="">
    <dc:format>image/svg+xml</dc:format>
    <dc:type rdf:resource="http://purl.org/dc/dcmitype/StillImage"/>
    <dc:title/>
   </cc:Work>
  </rdf:RDF>
 </metadata>
 <rect id="rect4255-5" ry="8" rx="8" transform="matrix(0,-1,-1,0,0,0)" height="16" width="16" y="-16" x="-16" fill="#20b293"/>
 <path id="rect4451" fill="#fff" d="m7.4844 3v1.1253c-1.6936 0.1985-3.0672 1.3674-3.4844 2.8981h1.0703c0.4392-1.1057 1.6038-1.968 2.8734-1.9591h0.092183c0.4624 0.00556 0.91576 0.11111 1.3266 0.30495 0.74079 0.31539 1.2906 0.93761 1.5578 1.6557h1.0797c-0.417-1.5307-1.791-2.7-3.4844-2.8981v-1.1253h-1.0312zm0.51562 2.8741c-1.2564 0-2.2734 0.95839-2.2734 2.1499 0 0-0.0156 0.20122 0.05 0.42967h3.4921c-0.0952 0.2492-0.2641 0.4732-0.4937 0.622-0.528 0.395-1.3281 0.2507-1.7781-0.1908h-1.0812c0.3515 0.7589 1.1515 1.2891 2.0843 1.2891 1.2564 0 2.2734-0.9615 2.2734-2.1499 0 0-0.000112-0.22083-0.04532-0.42972h-3.4929c0.1969-0.4704 0.667-0.8503 1.2118-0.8549h0.081246c0.3656 0.00778 0.72039 0.17128 0.96719 0.42667h1.0891c-0.3512-0.7589-1.1528-1.2906-2.084-1.2906zm-4 3.1025c0.4172 1.5308 1.7908 2.7001 3.4844 2.8982v1.1253h1.0312v-1.1253c1.6936-0.2 3.0672-1.3674 3.4844-2.8982h-1.064c-0.417 1.1612-1.7081 2.0012-3.0109 1.9572-1.2704 0.006-2.4199-0.852-2.8515-1.9574h-1.0734z"/>
</svg>
